www/assets/icons/add_task.svg

<svg xmlns="http://www.w3.org/2000/svg" width="24" height="24" viewBox="0 0 24 24" fill='currentColor'><path d="M21 5.18 9.59 16.6l-4.24-4.24 1.41-1.41 2.83 2.83 10-10zM11 20c-4.41 0-8-3.59-8-8s3.59-8 8-8c1.57 0 3.04.46 4.28 1.25l1.45-1.45A10 10 0 0 0 11 2C5.48 2 1 6.48 1 12s4.48 10 10 10c1.73 0 3.36-.44 4.78-1.22l-1.5-1.5c-1 .46-2.11.72-3.28.72m7-5h-3v2h3v3h2v-3h3v-2h-3v-3h-2z"/></svg>

<svg width="24" height="24" viewBox="0 0 24 24" xmlns="http://www.w3.org/2000/svg" fill='currentColor'><path d="M21 5.18L9.59 16.6L5.35 12.36L6.76 10.95L9.59 13.78L19.59 3.78L21 5.18ZM11 20C6.59 20 3 16.41 3 12C3 7.59 6.59 4 11 4C12.57 4 14.04 4.46 15.28 5.25L16.73 3.8C15.1 2.67 13.13 2 11 2C5.48 2 1 6.48 1 12C1 17.52 5.48 22 11 22C12.73 22 14.36 21.56 15.78 20.78L14.28 19.28C13.28 19.74 12.17 20 11 20ZM18 15H15V17H18V20H20V17H23V15H20V12H18V15Z"/></svg>
